X:1
T:Title
%%score { ( 1 4 ) | ( 2 3 ) }
L:1/8
Q:1/4=100
M:4/4
K:G
V:1 treble nm="Grand Piano"
V:4 treble 
V:2 bass 
V:3 bass 
V:1
 [Ec]2 G>G E2 G2 | A4 G2 [Ec]2 | [Ee]2 [Ed][Ec] [=FA]2 [Fc]2 | [Ee]6 e2 | d2 GG c2 .[DFB]2 | %5
w: Adam~Geibel * * * *|||||
 B4 z4 | [EGA]2 [EGA][EGA] .[Fd]2 F-[FA] | G2 G>G G2 G2 | [CEA]2 AA A2 A2 | [D=Fc]4 z4 | %10
w: |||||
 [EGc]2 cc c2 c2 | [Fce]4 [GBd]2 G,2 | e2 ee =f2 e2 |[M:9/8] d2 c- c B2- B A2 | %14
w: ||||
[M:4/4] G2 Ac d3 [Ec] |[M:11/8] [Ec]-[Ec]-[Ec]-[Ec]-[Ec]-[Ec]- [Ec]3 z2 | %16
w: ||
[M:6/8] [DB][DB][DB] [DB]2 B | [EB]3 [EA]2 G | [DF]GA [Ec]2 B | [DB]3- [DB] z D | %20
w: ||||
 [DB][DB][DB] [DB]2 B | [Fd]3 [FA]2 F | [^CA]AB A2 E |[M:7/8] A-A-A- A3 z | %24
w: ||||
[M:3/4] [DA][DA] [DA] [DB]2 [DA] | [Dd]3 .[DB]3 | [EB][EB] [EB] [Ec]2 [EB] | [Ee]3 .[Ec]3 | %28
w: ||||
 [FB][FA] [=F^G] [^FA]2 e |[M:7/8] e2 d [EG]3 [^DGA] |[M:3/4] [DGB]^C D [DFB]2 [=CFA] | %31
w: |||
[M:7/8] [B,DG]3 [CFA]3 B |[M:4/4] [Ec]2 G>G E2 G2 | A4 G2 [Ec]2 | [Ee]2 [Ed][Ec] [=FA]2 [Fc]2 | %35
w: ||||
 [Ee]6 e2 | d2 GG c2 .[DFB]2 | B4 z4 | [EGA]2 [EGA][EGA] .[Fd]2 F-[FA] | G2 G>G G2 G2 | %40
w: |||||
 [CEA]2 AA A2 A2 | [D=Fc]4 z4 | [EGc]2 cc c2 c2 | [Fce]4 [GBd]2 G,2 | e2 ee =f2 e2 | %45
w: |||||
[M:9/8] d2 c- c B2- B A2 |[M:4/4] G2 Ac d3 [Ec] |[M:11/8] [Ec]-[Ec]-[Ec]-[Ec]-[Ec]-[Ec]- [Ec]3 z2 | %48
w: |||
[M:4/4] c8 | [Ec]8 |] %50
w: ||
V:2
 [C,G,]2 G,>G, E,2 G,2 | A,4 G,2 [C,G,]2 | [C,G,]2 [C,G,][C,G,] [C,A,]2 [C,^G,]2 | %3
 [C,G,]6[K:treble] [CG]2 | [B,DG]2 [B,D][B,D] [A,EG]2[K:bass] z A | G,3 B, B,2 B,,2 | %6
 C,2 C,C, z[K:treble] c[K:bass] z C | [G,B,]2 G,>G, G,2 G,2 | G,2 [G,CE][G,CE] [G,CE]2 [G,CE]2 | %9
 G,2 z2[K:treble] [G,D=F]2 z2 | G,2[K:treble] [G,EG][G,EG] [G,EG]2 [G,EG]2 | G,2 G,G, G,2 z2 | %12
 [CG]2 [B,CG][B,CG] [A,C=F]2 [G,CG]2 |[M:9/8][K:bass] [=F,C]3- [F,C] [^F,C^D]2- [F,CD] [F,CD]2 | %14
[M:4/4][K:treble] [G,CE]2 [G,CE][G,CE] [G,B,=F]3[K:bass] [C,C] | %15
[M:11/8] [C,C]-[C,C]-[C,C]-[C,C]-[C,C]-[C,C]- [C,C]3 z2 |[M:6/8] z3 G,3 | C,E,^G, A,2 E | %18
 z[K:treble] EF[K:bass] z2 E | G,,B,,D, G,D,B,, | z3 G,3 | A,,D,F, A,2 D | z ^CC C2 C | %23
[M:7/8] [F,D]2 E, F,3 z |[M:3/4] [C,F,][C,F,] [C,F,] [C,F,]2 [C,F,] | [B,,G,]3 .[B,,G,]3 | %26
 [D,^G,][D,G,] [D,G,] [D,G,]2 [D,A,] | [C,A,]3 .[C,A,]3 | [D,D][D,D] [D,D] [D,D]2[K:treble] [CDF] | %29
[M:7/8] [B,DG]3 C3[K:bass] C, |[M:3/4] D,^C, D, D,2 D, |[M:7/8] G,,3 [G,,G,]3 [D=F] | %32
[M:4/4] [C,G,]2 G,>G, E,2 G,2 | A,4 G,2 [C,G,]2 | [C,G,]2 [C,G,][C,G,] [C,A,]2 [C,^G,]2 | %35
 [C,G,]6[K:treble] [CG]2 | [B,DG]2 [B,D][B,D] [A,EG]2[K:bass] z A | G,3 B, B,2 B,,2 | %38
 C,2 C,C, z[K:treble] c[K:bass] z C | [G,B,]2 G,>G, G,2 G,2 | G,2 [G,CE][G,CE] [G,CE]2 [G,CE]2 | %41
 G,2 z2[K:treble] [G,D=F]2 z2 | G,2[K:treble] [G,EG][G,EG] [G,EG]2 [G,EG]2 | G,2 G,G, G,2 z2 | %44
 [CG]2 [B,CG][B,CG] [A,C=F]2 [G,CG]2 |[M:9/8][K:bass] [=F,C]3- [F,C] [^F,C^D]2- [F,CD] [F,CD]2 | %46
[M:4/4][K:treble] [G,CE]2 [G,CE][G,CE] [G,B,=F]3[K:bass] [C,C] | %47
[M:11/8] [C,C]-[C,C]-[C,C]-[C,C]-[C,C]-[C,C]- [C,C]3 z2 |[M:4/4] [A,=F]4 ^G,4 | [C,G,]8 |] %50
V:3
 x8 | x8 | x8 | x6[K:treble] x2 | z4 z2[K:bass] D,2 | x8 | z4 [D,A,]2[K:treble][K:bass] D,2 | x8 | %8
 G,,8 | G,,8[K:treble] | G,,8[K:treble] | G,,8 | x8 |[M:9/8][K:bass] x9 | %14
[M:4/4][K:treble] x7[K:bass] x |[M:11/8] x11 |[M:6/8] G,,B,,D, z2 ^D | x6 | %18
 D,3[K:treble][K:bass] D,,3 | x6 | G,,B,,D, z2 G | x6 | [A,,E,G,]6 |[M:7/8] D,-D,-D,- D,3 z | %24
[M:3/4] x6 | x6 | x6 | x6 | x5[K:treble] x |[M:7/8] x6[K:bass] x |[M:3/4] x6 |[M:7/8] x7 | %32
[M:4/4] x8 | x8 | x8 | x6[K:treble] x2 | z4 z2[K:bass] D,2 | x8 | %38
 z4 [D,A,]2[K:treble][K:bass] D,2 | x8 | G,,8 | G,,8[K:treble] | G,,8[K:treble] | G,,8 | x8 | %45
[M:9/8][K:bass] x9 |[M:4/4][K:treble] x7[K:bass] x |[M:11/8] x11 |[M:4/4] =F,8 | x8 |] %50
V:4
 x8 | x8 | x8 | x8 | x8 | [DG]3- [DGc] [DGd]2 [DG]2 | z4 z2 .[DB]2 | x8 | x8 | z2 G,G, B2 G,2 | %10
 x8 | x8 | x8 |[M:9/8] .A6 z3 |[M:4/4] x8 |[M:11/8] x11 |[M:6/8] x6 | x6 | x6 | x6 | x6 | x6 | x6 | %23
[M:7/8] z2 ^C =C3 z |[M:3/4] x6 | x6 | x6 | x6 | x6 |[M:7/8] x7 |[M:3/4] x6 |[M:7/8] x7 | %32
[M:4/4] x8 | x8 | x8 | x8 | x8 | [DG]3- [DGc] [DGd]2 [DG]2 | z4 z2 .[DB]2 | x8 | x8 | %41
 z2 G,G, B2 G,2 | x8 | x8 | x8 |[M:9/8] .A6 z3 |[M:4/4] x8 |[M:11/8] x11 |[M:4/4] z4 D4 | x8 |] %50

